images/16758415.svg

<?xml version="1.0" encoding="UTF-8"?>
<svg xmlns="http://www.w3.org/2000/svg" xmlns:xlink="http://www.w3.org/1999/xlink" width="300pt" height="300pt" viewBox="0 0 300 300" version="1.1">
<defs>
<g>
<symbol overflow="visible" id="glyph0-0">
<path style="stroke:none;" d="M 0.453125 1.59375 L 0.453125 -6.34375 L 4.953125 -6.34375 L 4.953125 1.59375 Z M 0.953125 1.09375 L 4.453125 1.09375 L 4.453125 -5.84375 L 0.953125 -5.84375 Z M 0.953125 1.09375 "/>
</symbol>
<symbol overflow="visible" id="glyph0-1">
<path style="stroke:none;" d="M 0.890625 -6.5625 L 2.078125 -6.5625 L 4.984375 -1.078125 L 4.984375 -6.5625 L 5.84375 -6.5625 L 5.84375 0 L 4.65625 0 L 1.75 -5.484375 L 1.75 0 L 0.890625 0 Z M 0.890625 -6.5625 "/>
</symbol>
<symbol overflow="visible" id="glyph0-2">
<path style="stroke:none;" d="M 3.546875 -5.953125 C 2.898438 -5.953125 2.382812 -5.710938 2 -5.234375 C 1.625 -4.753906 1.4375 -4.101562 1.4375 -3.28125 C 1.4375 -2.445312 1.625 -1.789062 2 -1.3125 C 2.382812 -0.832031 2.898438 -0.59375 3.546875 -0.59375 C 4.191406 -0.59375 4.703125 -0.832031 5.078125 -1.3125 C 5.453125 -1.789062 5.640625 -2.445312 5.640625 -3.28125 C 5.640625 -4.101562 5.453125 -4.753906 5.078125 -5.234375 C 4.703125 -5.710938 4.191406 -5.953125 3.546875 -5.953125 Z M 3.546875 -6.6875 C 4.460938 -6.6875 5.195312 -6.375 5.75 -5.75 C 6.300781 -5.132812 6.578125 -4.3125 6.578125 -3.28125 C 6.578125 -2.238281 6.300781 -1.410156 5.75 -0.796875 C 5.195312 -0.179688 4.460938 0.125 3.546875 0.125 C 2.617188 0.125 1.878906 -0.179688 1.328125 -0.796875 C 0.773438 -1.410156 0.5 -2.238281 0.5 -3.28125 C 0.5 -4.3125 0.773438 -5.132812 1.328125 -5.75 C 1.878906 -6.375 2.617188 -6.6875 3.546875 -6.6875 Z M 3.546875 -6.6875 "/>
</symbol>
</g>
</defs>
<g id="surface34901">
<rect x="0" y="0" width="300" height="300" style="fill:rgb(100%,100%,100%);fill-opacity:1;stroke:none;"/>
<path style="fill:none;stroke-width:1.2;stroke-linecap:butt;stroke-linejoin:miter;stroke:rgb(0%,0%,0%);stroke-opacity:1;stroke-miterlimit:10;" d="M 56.902344 118.523438 L 64.96875 135.683594 "/>
<path style="fill:none;stroke-width:1.2;stroke-linecap:butt;stroke-linejoin:miter;stroke:rgb(0%,0%,0%);stroke-opacity:1;stroke-miterlimit:10;" d="M 64.96875 135.683594 L 83.867188 137.273438 "/>
<path style="fill:none;stroke-width:1.2;stroke-linecap:butt;stroke-linejoin:miter;stroke:rgb(0%,0%,0%);stroke-opacity:1;stroke-miterlimit:10;" d="M 66.484375 140.289062 L 81.601562 141.5625 "/>
<path style="fill:none;stroke-width:1.2;stroke-linecap:butt;stroke-linejoin:miter;stroke:rgb(0%,0%,0%);stroke-opacity:1;stroke-miterlimit:10;" d="M 54.144531 151.253906 L 64.96875 135.683594 "/>
<path style="fill:none;stroke-width:1.2;stroke-linecap:butt;stroke-linejoin:miter;stroke:rgb(0%,0%,0%);stroke-opacity:1;stroke-miterlimit:10;" d="M 83.867188 137.273438 L 91.9375 154.433594 "/>
<path style="fill:none;stroke-width:1.2;stroke-linecap:butt;stroke-linejoin:miter;stroke:rgb(0%,0%,0%);stroke-opacity:1;stroke-miterlimit:10;" d="M 91.9375 154.433594 L 81.109375 170.003906 "/>
<path style="fill:none;stroke-width:1.2;stroke-linecap:butt;stroke-linejoin:miter;stroke:rgb(0%,0%,0%);stroke-opacity:1;stroke-miterlimit:10;" d="M 94.515625 158.539062 L 85.855469 170.992188 "/>
<path style="fill:none;stroke-width:1.2;stroke-linecap:butt;stroke-linejoin:miter;stroke:rgb(0%,0%,100%);stroke-opacity:1;stroke-miterlimit:10;" d="M 110.832031 156.023438 L 101.382812 155.230469 "/>
<path style="fill:none;stroke-width:1.2;stroke-linecap:butt;stroke-linejoin:miter;stroke:rgb(0%,0%,0%);stroke-opacity:1;stroke-miterlimit:10;" d="M 101.382812 155.230469 L 91.9375 154.433594 "/>
<path style="fill:none;stroke-width:1.2;stroke-linecap:butt;stroke-linejoin:miter;stroke:rgb(0%,0%,0%);stroke-opacity:1;stroke-miterlimit:10;" d="M 81.109375 170.003906 L 89.179688 187.160156 "/>
<path style="fill:none;stroke-width:1.2;stroke-linecap:butt;stroke-linejoin:miter;stroke:rgb(0%,0%,0%);stroke-opacity:1;stroke-miterlimit:10;" d="M 81.109375 170.003906 L 71.664062 169.207031 "/>
<path style="fill:none;stroke-width:1.2;stroke-linecap:butt;stroke-linejoin:miter;stroke:rgb(0%,0%,100%);stroke-opacity:1;stroke-miterlimit:10;" d="M 71.664062 169.207031 L 62.214844 168.410156 "/>
<path style="fill:none;stroke-width:1.2;stroke-linecap:butt;stroke-linejoin:miter;stroke:rgb(0%,0%,0%);stroke-opacity:1;stroke-miterlimit:10;" d="M 89.179688 187.160156 L 108.078125 188.753906 "/>
<path style="fill:none;stroke-width:1.2;stroke-linecap:butt;stroke-linejoin:miter;stroke:rgb(0%,0%,0%);stroke-opacity:1;stroke-miterlimit:10;" d="M 108.078125 188.753906 L 118.902344 173.183594 "/>
<path style="fill:none;stroke-width:1.2;stroke-linecap:butt;stroke-linejoin:miter;stroke:rgb(0%,0%,0%);stroke-opacity:1;stroke-miterlimit:10;" d="M 118.902344 173.183594 L 114.867188 164.605469 "/>
<path style="fill:none;stroke-width:1.2;stroke-linecap:butt;stroke-linejoin:miter;stroke:rgb(0%,0%,100%);stroke-opacity:1;stroke-miterlimit:10;" d="M 114.867188 164.605469 L 110.832031 156.023438 "/>
<path style="fill:none;stroke-width:1.2;stroke-linecap:butt;stroke-linejoin:miter;stroke:rgb(0%,0%,100%);stroke-opacity:1;stroke-miterlimit:10;" d="M 110.832031 156.023438 L 116.246094 148.242188 "/>
<path style="fill:none;stroke-width:1.2;stroke-linecap:butt;stroke-linejoin:miter;stroke:rgb(0%,0%,0%);stroke-opacity:1;stroke-miterlimit:10;" d="M 116.246094 148.242188 L 121.65625 140.457031 "/>
<path style=" stroke:none;fill-rule:nonzero;fill:rgb(100%,100%,100%);fill-opacity:1;" d="M 107.832031 150.523438 L 114.832031 150.523438 L 114.832031 161.523438 L 107.832031 161.523438 Z M 107.832031 150.523438 "/>
<g style="fill:rgb(0%,0%,100%);fill-opacity:1;">
  <use xlink:href="#glyph0-1" x="107.832031" y="159.186523"/>
</g>
<path style="fill:none;stroke-width:1.2;stroke-linecap:butt;stroke-linejoin:miter;stroke:rgb(0%,0%,0%);stroke-opacity:1;stroke-miterlimit:10;" d="M 121.65625 140.457031 L 140.550781 142.046875 "/>
<path style="fill:none;stroke-width:1.2;stroke-linecap:butt;stroke-linejoin:miter;stroke:rgb(0%,0%,0%);stroke-opacity:1;stroke-miterlimit:10;" d="M 140.550781 142.046875 L 151.378906 126.476562 "/>
<path style="fill:none;stroke-width:1.2;stroke-linecap:butt;stroke-linejoin:miter;stroke:rgb(0%,0%,0%);stroke-opacity:1;stroke-miterlimit:10;" d="M 151.378906 126.476562 L 160.824219 127.273438 "/>
<path style="fill:none;stroke-width:1.2;stroke-linecap:butt;stroke-linejoin:miter;stroke:rgb(0%,0%,100%);stroke-opacity:1;stroke-miterlimit:10;" d="M 160.824219 127.273438 L 170.273438 128.070312 "/>
<path style="fill:none;stroke-width:1.2;stroke-linecap:butt;stroke-linejoin:miter;stroke:rgb(0%,0%,0%);stroke-opacity:1;stroke-miterlimit:10;" d="M 152.894531 131.082031 L 160.449219 131.71875 "/>
<path style="fill:none;stroke-width:1.2;stroke-linecap:butt;stroke-linejoin:miter;stroke:rgb(0%,0%,100%);stroke-opacity:1;stroke-miterlimit:10;" d="M 160.449219 131.71875 L 168.007812 132.355469 "/>
<path style="fill:none;stroke-width:1.2;stroke-linecap:butt;stroke-linejoin:miter;stroke:rgb(0%,0%,0%);stroke-opacity:1;stroke-miterlimit:10;" d="M 151.378906 126.476562 L 143.308594 109.320312 "/>
<path style="fill:none;stroke-width:1.2;stroke-linecap:butt;stroke-linejoin:miter;stroke:rgb(0%,0%,100%);stroke-opacity:1;stroke-miterlimit:10;" d="M 170.273438 128.070312 L 175.6875 120.285156 "/>
<path style="fill:none;stroke-width:1.2;stroke-linecap:butt;stroke-linejoin:miter;stroke:rgb(100%,0%,0%);stroke-opacity:1;stroke-miterlimit:10;" d="M 175.6875 120.285156 L 181.097656 112.5 "/>
<path style=" stroke:none;fill-rule:nonzero;fill:rgb(100%,100%,100%);fill-opacity:1;" d="M 167.273438 122.570312 L 174.273438 122.570312 L 174.273438 133.570312 L 167.273438 133.570312 Z M 167.273438 122.570312 "/>
<g style="fill:rgb(0%,0%,100%);fill-opacity:1;">
  <use xlink:href="#glyph0-1" x="167.273438" y="131.233398"/>
</g>
<path style=" stroke:none;fill-rule:nonzero;fill:rgb(0%,0%,0%);fill-opacity:1;" d="M 199.992188 114.089844 L 181.378906 109.164062 L 180.816406 115.835938 Z M 199.992188 114.089844 "/>
<path style=" stroke:none;fill-rule:nonzero;fill:rgb(100%,100%,100%);fill-opacity:1;" d="M 177.097656 107 L 185.097656 107 L 185.097656 118 L 177.097656 118 Z M 177.097656 107 "/>
<g style="fill:rgb(100%,0%,0%);fill-opacity:1;">
  <use xlink:href="#glyph0-2" x="177.097656" y="115.663086"/>
</g>
<path style="fill:none;stroke-width:1.2;stroke-linecap:butt;stroke-linejoin:miter;stroke:rgb(0%,0%,0%);stroke-opacity:1;stroke-miterlimit:10;" d="M 199.992188 114.089844 L 210.820312 98.523438 "/>
<path style="fill:none;stroke-width:1.2;stroke-linecap:butt;stroke-linejoin:miter;stroke:rgb(0%,0%,0%);stroke-opacity:1;stroke-miterlimit:10;" d="M 199.992188 114.089844 L 208.0625 131.25 "/>
<path style="fill:none;stroke-width:1.2;stroke-linecap:butt;stroke-linejoin:miter;stroke:rgb(0%,0%,0%);stroke-opacity:1;stroke-miterlimit:10;" d="M 208.0625 131.25 L 217.511719 132.046875 "/>
<path style="fill:none;stroke-width:1.2;stroke-linecap:butt;stroke-linejoin:miter;stroke:rgb(0%,0%,100%);stroke-opacity:1;stroke-miterlimit:10;" d="M 217.511719 132.046875 L 226.960938 132.839844 "/>
<path style="fill:none;stroke-width:1.2;stroke-linecap:butt;stroke-linejoin:miter;stroke:rgb(0%,0%,100%);stroke-opacity:1;stroke-miterlimit:10;" d="M 226.960938 132.839844 L 232.371094 125.054688 "/>
<path style="fill:none;stroke-width:1.2;stroke-linecap:butt;stroke-linejoin:miter;stroke:rgb(0%,0%,0%);stroke-opacity:1;stroke-miterlimit:10;" d="M 232.371094 125.054688 L 237.785156 117.273438 "/>
<path style="fill:none;stroke-width:1.2;stroke-linecap:butt;stroke-linejoin:miter;stroke:rgb(0%,0%,0%);stroke-opacity:1;stroke-miterlimit:10;" d="M 235.03125 150 L 230.996094 141.421875 "/>
<path style="fill:none;stroke-width:1.2;stroke-linecap:butt;stroke-linejoin:miter;stroke:rgb(0%,0%,100%);stroke-opacity:1;stroke-miterlimit:10;" d="M 230.996094 141.421875 L 226.960938 132.839844 "/>
<path style=" stroke:none;fill-rule:nonzero;fill:rgb(100%,100%,100%);fill-opacity:1;" d="M 223.960938 127.339844 L 230.960938 127.339844 L 230.960938 138.339844 L 223.960938 138.339844 Z M 223.960938 127.339844 "/>
<g style="fill:rgb(0%,0%,100%);fill-opacity:1;">
  <use xlink:href="#glyph0-1" x="223.960938" y="136.00293"/>
</g>
<path style="fill:none;stroke-width:1.2;stroke-linecap:butt;stroke-linejoin:miter;stroke:rgb(0%,0%,0%);stroke-opacity:1;stroke-miterlimit:10;" d="M 237.785156 117.273438 L 256.679688 118.863281 "/>
<path style="fill:none;stroke-width:1.2;stroke-linecap:butt;stroke-linejoin:miter;stroke:rgb(0%,0%,0%);stroke-opacity:1;stroke-miterlimit:10;" d="M 256.679688 118.863281 L 264.75 136.023438 "/>
<path style="fill:none;stroke-width:1.2;stroke-linecap:butt;stroke-linejoin:miter;stroke:rgb(0%,0%,0%);stroke-opacity:1;stroke-miterlimit:10;" d="M 264.75 136.023438 L 253.925781 151.589844 "/>
<path style="fill:none;stroke-width:1.2;stroke-linecap:butt;stroke-linejoin:miter;stroke:rgb(0%,0%,0%);stroke-opacity:1;stroke-miterlimit:10;" d="M 253.925781 151.589844 L 235.03125 150 "/>
<path style="fill:none;stroke-width:1.2;stroke-linecap:butt;stroke-linejoin:miter;stroke:rgb(0%,0%,0%);stroke-opacity:1;stroke-miterlimit:10;" d="M 251.660156 155.878906 L 236.542969 154.605469 "/>
<path style="fill:none;stroke-width:1.2;stroke-linecap:butt;stroke-linejoin:miter;stroke:rgb(0%,0%,100%);stroke-opacity:1;stroke-miterlimit:10;" d="M 261.996094 168.75 L 257.960938 160.171875 "/>
<path style="fill:none;stroke-width:1.2;stroke-linecap:butt;stroke-linejoin:miter;stroke:rgb(0%,0%,0%);stroke-opacity:1;stroke-miterlimit:10;" d="M 257.960938 160.171875 L 253.925781 151.589844 "/>
<path style="fill:none;stroke-width:1.2;stroke-linecap:butt;stroke-linejoin:miter;stroke:rgb(0%,0%,0%);stroke-opacity:1;stroke-miterlimit:10;" d="M 235.03125 150 L 224.203125 165.570312 "/>
<path style="fill:none;stroke-width:1.2;stroke-linecap:butt;stroke-linejoin:miter;stroke:rgb(0%,0%,0%);stroke-opacity:1;stroke-miterlimit:10;" d="M 224.203125 165.570312 L 232.273438 182.726562 "/>
<path style="fill:none;stroke-width:1.2;stroke-linecap:butt;stroke-linejoin:miter;stroke:rgb(0%,0%,0%);stroke-opacity:1;stroke-miterlimit:10;" d="M 229.046875 165.386719 L 235.503906 179.113281 "/>
<path style="fill:none;stroke-width:1.2;stroke-linecap:butt;stroke-linejoin:miter;stroke:rgb(0%,0%,0%);stroke-opacity:1;stroke-miterlimit:10;" d="M 232.273438 182.726562 L 251.167969 184.320312 "/>
<path style="fill:none;stroke-width:1.2;stroke-linecap:butt;stroke-linejoin:miter;stroke:rgb(0%,0%,0%);stroke-opacity:1;stroke-miterlimit:10;" d="M 232.273438 182.726562 L 221.449219 198.296875 "/>
<path style="fill:none;stroke-width:1.2;stroke-linecap:butt;stroke-linejoin:miter;stroke:rgb(0%,0%,0%);stroke-opacity:1;stroke-miterlimit:10;" d="M 251.167969 184.320312 L 256.582031 176.535156 "/>
<path style="fill:none;stroke-width:1.2;stroke-linecap:butt;stroke-linejoin:miter;stroke:rgb(0%,0%,100%);stroke-opacity:1;stroke-miterlimit:10;" d="M 256.582031 176.535156 L 261.996094 168.75 "/>
<path style="fill:none;stroke-width:1.2;stroke-linecap:butt;stroke-linejoin:miter;stroke:rgb(0%,0%,0%);stroke-opacity:1;stroke-miterlimit:10;" d="M 248.589844 180.214844 L 252.917969 173.988281 "/>
<path style="fill:none;stroke-width:1.2;stroke-linecap:butt;stroke-linejoin:miter;stroke:rgb(0%,0%,100%);stroke-opacity:1;stroke-miterlimit:10;" d="M 252.917969 173.988281 L 257.25 167.757812 "/>
<path style="fill:none;stroke-width:1.2;stroke-linecap:butt;stroke-linejoin:miter;stroke:rgb(0%,0%,0%);stroke-opacity:1;stroke-miterlimit:10;" d="M 251.167969 184.320312 L 259.238281 201.476562 "/>
<path style=" stroke:none;fill-rule:nonzero;fill:rgb(100%,100%,100%);fill-opacity:1;" d="M 258.996094 163.25 L 265.996094 163.25 L 265.996094 174.25 L 258.996094 174.25 Z M 258.996094 163.25 "/>
<g style="fill:rgb(0%,0%,100%);fill-opacity:1;">
  <use xlink:href="#glyph0-1" x="258.996094" y="171.913086"/>
</g>
<path style="fill:none;stroke-width:1.2;stroke-linecap:butt;stroke-linejoin:miter;stroke:rgb(0%,0%,100%);stroke-opacity:1;stroke-miterlimit:10;" d="M 62.214844 168.410156 L 58.179688 159.832031 "/>
<path style="fill:none;stroke-width:1.2;stroke-linecap:butt;stroke-linejoin:miter;stroke:rgb(0%,0%,0%);stroke-opacity:1;stroke-miterlimit:10;" d="M 58.179688 159.832031 L 54.144531 151.253906 "/>
<path style="fill:none;stroke-width:1.2;stroke-linecap:butt;stroke-linejoin:miter;stroke:rgb(0%,0%,100%);stroke-opacity:1;stroke-miterlimit:10;" d="M 65.445312 164.796875 L 62.21875 157.933594 "/>
<path style="fill:none;stroke-width:1.2;stroke-linecap:butt;stroke-linejoin:miter;stroke:rgb(0%,0%,0%);stroke-opacity:1;stroke-miterlimit:10;" d="M 62.21875 157.933594 L 58.988281 151.070312 "/>
<path style=" stroke:none;fill-rule:nonzero;fill:rgb(100%,100%,100%);fill-opacity:1;" d="M 59.214844 162.910156 L 66.214844 162.910156 L 66.214844 173.910156 L 59.214844 173.910156 Z M 59.214844 162.910156 "/>
<g style="fill:rgb(0%,0%,100%);fill-opacity:1;">
  <use xlink:href="#glyph0-1" x="59.214844" y="171.573242"/>
</g>
<path style="fill:none;stroke-width:1.2;stroke-linecap:butt;stroke-linejoin:miter;stroke:rgb(0%,0%,0%);stroke-opacity:1;stroke-miterlimit:10;" d="M 54.144531 151.253906 L 35.25 149.660156 "/>
</g>
</svg>

<svg xmlns="http://www.w3.org/2000/svg" xmlns:xlink="http://www.w3.org/1999/xlink" width="300pt" height="300pt" viewBox="0 0 300 300"><defs><symbol overflow="visible"><path d="M.453 1.594v-7.938h4.5v7.938zm.5-.5h3.5v-6.938h-3.5zm0 0"/></symbol><symbol overflow="visible" id="a"><path d="M.89-6.563H2.08l2.906 5.485v-5.484h.86V0H4.656L1.75-5.484V0H.89zm0 0"/></symbol><symbol overflow="visible" id="b"><path d="M3.547-5.953c-.65 0-1.164.242-1.547.72-.375.48-.563 1.13-.563 1.952 0 .835.188 1.49.563 1.967.383.48.898.72 1.547.72.644 0 1.156-.24 1.53-.72.376-.476.564-1.132.564-1.968 0-.822-.187-1.474-.562-1.954-.375-.477-.887-.72-1.53-.72zm0-.734c.914 0 1.648.312 2.203.937.55.617.828 1.438.828 2.47 0 1.042-.277 1.87-.828 2.483-.555.617-1.29.922-2.203.922-.93 0-1.668-.305-2.22-.922C.774-1.41.5-2.237.5-3.28c0-1.033.273-1.853.828-2.47.55-.625 1.29-.938 2.22-.938zm0 0"/></symbol></defs><g><path fill="#fff" d="M0 0h300v300H0z"/><path d="M56.902 118.523l8.067 17.16M64.97 135.684l18.897 1.59M66.484 140.29l15.118 1.273M54.145 151.254l10.824-15.57M83.867 137.273l8.07 17.16M91.938 154.434l-10.83 15.57M94.516 158.54l-8.66 12.452" stroke-width="1.2" stroke="#000" stroke-miterlimit="10" fill="none"/><path d="M110.832 156.023l-9.45-.793" stroke-width="1.2" stroke="#00f" stroke-miterlimit="10" fill="none"/><path d="M101.383 155.23l-9.445-.796M81.11 170.004l8.07 17.156M81.11 170.004l-9.446-.797" stroke-width="1.2" stroke="#000" stroke-miterlimit="10" fill="none"/><path d="M71.664 169.207l-9.45-.797" stroke-width="1.2" stroke="#00f" stroke-miterlimit="10" fill="none"/><path d="M89.18 187.16l18.898 1.594M108.078 188.754l10.824-15.57M118.902 173.184l-4.035-8.58" stroke-width="1.2" stroke="#000" stroke-miterlimit="10" fill="none"/><path d="M114.867 164.605l-4.035-8.582M110.832 156.023l5.414-7.78" stroke-width="1.2" stroke="#00f" stroke-miterlimit="10" fill="none"/><path d="M116.246 148.242l5.41-7.785" stroke-width="1.2" stroke="#000" stroke-miterlimit="10" fill="none"/><path d="M107.832 150.523h7v11h-7zm0 0" fill="#fff"/><use xlink:href="#a" x="107.832" y="159.187" fill="#00f"/><path d="M121.656 140.457l18.895 1.59M140.55 142.047l10.83-15.57M151.38 126.477l9.444.796" stroke-width="1.2" stroke="#000" stroke-miterlimit="10" fill="none"/><path d="M160.824 127.273l9.45.797" stroke-width="1.2" stroke="#00f" stroke-miterlimit="10" fill="none"/><path d="M152.895 131.082l7.554.637" stroke-width="1.2" stroke="#000" stroke-miterlimit="10" fill="none"/><path d="M160.45 131.72l7.558.635" stroke-width="1.2" stroke="#00f" stroke-miterlimit="10" fill="none"/><path d="M151.38 126.477l-8.07-17.157" stroke-width="1.2" stroke="#000" stroke-miterlimit="10" fill="none"/><path d="M170.273 128.07l5.415-7.785" stroke-width="1.2" stroke="#00f" stroke-miterlimit="10" fill="none"/><path d="M175.688 120.285l5.41-7.785" stroke-width="1.2" stroke="#f00" stroke-miterlimit="10" fill="none"/><path d="M167.273 122.57h7v11h-7zm0 0" fill="#fff"/><use xlink:href="#a" x="167.273" y="131.233" fill="#00f"/><path d="M199.992 114.09l-18.613-4.926-.564 6.672zm0 0"/><path d="M177.098 107h8v11h-8zm0 0" fill="#fff"/><use xlink:href="#b" x="177.098" y="115.663" fill="#f00"/><path d="M199.992 114.09l10.828-15.567M199.992 114.09l8.07 17.16M208.063 131.25l9.45.797" stroke-width="1.2" stroke="#000" stroke-miterlimit="10" fill="none"/><path d="M217.512 132.047l9.45.793M226.96 132.84l5.41-7.785" stroke-width="1.2" stroke="#00f" stroke-miterlimit="10" fill="none"/><path d="M232.37 125.055l5.415-7.782M235.03 150l-4.034-8.578" stroke-width="1.2" stroke="#000" stroke-miterlimit="10" fill="none"/><path d="M230.996 141.422l-4.035-8.582" stroke-width="1.2" stroke="#00f" stroke-miterlimit="10" fill="none"/><path d="M223.96 127.34h7v11h-7zm0 0" fill="#fff"/><use xlink:href="#a" x="223.961" y="136.003" fill="#00f"/><path d="M237.785 117.273l18.895 1.59M256.68 118.863l8.07 17.16M264.75 136.023l-10.824 15.567M253.926 151.59L235.03 150M251.66 155.88l-15.117-1.275" stroke-width="1.2" stroke="#000" stroke-miterlimit="10" fill="none"/><path d="M261.996 168.75l-4.035-8.578" stroke-width="1.2" stroke="#00f" stroke-miterlimit="10" fill="none"/><path d="M257.96 160.172l-4.034-8.582M235.03 150l-10.827 15.57M224.203 165.57l8.07 17.157M229.047 165.387l6.457 13.726M232.273 182.727l18.895 1.593M232.273 182.727l-10.824 15.57M251.168 184.32l5.414-7.785" stroke-width="1.2" stroke="#000" stroke-miterlimit="10" fill="none"/><path d="M256.582 176.535l5.414-7.785" stroke-width="1.2" stroke="#00f" stroke-miterlimit="10" fill="none"/><path d="M248.59 180.215l4.328-6.227" stroke-width="1.2" stroke="#000" stroke-miterlimit="10" fill="none"/><path d="M252.918 173.988l4.332-6.23" stroke-width="1.2" stroke="#00f" stroke-miterlimit="10" fill="none"/><path d="M251.168 184.32l8.07 17.157" stroke-width="1.2" stroke="#000" stroke-miterlimit="10" fill="none"/><path d="M258.996 163.25h7v11h-7zm0 0" fill="#fff"/><use xlink:href="#a" x="258.996" y="171.913" fill="#00f"/><path d="M62.215 168.41l-4.035-8.578" stroke-width="1.2" stroke="#00f" stroke-miterlimit="10" fill="none"/><path d="M58.18 159.832l-4.035-8.578" stroke-width="1.2" stroke="#000" stroke-miterlimit="10" fill="none"/><path d="M65.445 164.797l-3.226-6.863" stroke-width="1.2" stroke="#00f" stroke-miterlimit="10" fill="none"/><path d="M62.22 157.934l-3.232-6.864" stroke-width="1.2" stroke="#000" stroke-miterlimit="10" fill="none"/><path d="M59.215 162.91h7v11h-7zm0 0" fill="#fff"/><use xlink:href="#a" x="59.215" y="171.573" fill="#00f"/><path d="M54.145 151.254L35.25 149.66" stroke-width="1.2" stroke="#000" stroke-miterlimit="10" fill="none"/></g></svg>
